icons/lines/candle.svg

<svg xmlns="http://www.w3.org/2000/svg" width="24" height="24" viewBox="0 0 24 24" fill="none" stroke="currentColor" stroke-width="2" stroke-linecap="round" stroke-linejoin="round">
  <path d="M17.5 22v-3" />
  <path d="M17.5 9V2" />
  <path d="M20.5 17c0 1.1-.5 2-2 2h-2c-1.5 0-2-.9-2-2v-6c0-1.1.5-2 2-2h2c1.5 0 2 .9 2 2z" />
  <path d="M6.5 22v-7" />
  <path d="M6.5 5V2" />
  <path d="M9.5 13c0 1.1-.5 2-2 2h-2c-1.5 0-2-.9-2-2V7c0-1.1.5-2 2-2h2c1.5 0 2 .9 2 2z" />
</svg>

<svg xmlns="http://www.w3.org/2000/svg" width="24" height="24" viewBox="0 0 24 24" fill="none" stroke="currentColor" stroke-width="2" stroke-linecap="round" stroke-linejoin="round" >
  <path d="M6.5 22V15" stroke-miterlimit="10"/>
  <path d="M6.5 5V2" stroke-miterlimit="10"/>
  <path d="M17.5 22V19" stroke-miterlimit="10"/>
  <path d="M17.5 9V2" stroke-miterlimit="10"/>
  <path d="M9.5 7V13C9.5 14.1 9 15 7.5 15H5.5C4 15 3.5 14.1 3.5 13V7C3.5 5.9 4 5 5.5 5H7.5C9 5 9.5 5.9 9.5 7Z" stroke-miterlimit="10"/>
  <path d="M20.5 11V17C20.5 18.1 20 19 18.5 19H16.5C15 19 14.5 18.1 14.5 17V11C14.5 9.9 15 9 16.5 9H18.5C20 9 20.5 9.9 20.5 11Z" stroke-miterlimit="10"/>
  </svg>
